X: 1071
T:Schaefer's Favourite
M:4/4
L:1/8
S:Schaefer manuscripts in the National Library of Australia
R:Schottische
A:Australia
Z:Transcribed into ABC by John Furlonger
K:G
Bd (3gfe d2 B>A|G>A G>E D2 D2|c>B c>e d2 B2|(3BAG F>G A2 A2|
Bd (3gfe d2 B>A|G>A G>E D2 D2|c>B c>e d2 B2|(3Bcd (3cBA G2 G2|
g>f e>d e2 d2|g>f e>d e2 e2|d>d d>d f2 f2|e>d (3efg d2 d2|
B>d (3gfe d2 B>A|G>A G>E D2 D2|c>B c>e d2 B2|(3Bcd (3cBA G2 G2||
